modules/simple-icons/icons/unsplash.svg

<svg aria-labelledby="simpleicons-unsplash-icon" viewBox="0 0 24 24" xmlns="http://www.w3.org/2000/svg"><path d="M15.6 13.575a3.6 3.6 0 1 1-3.6-3.6c2.025.075 3.6 1.65 3.6 3.6zm8.4-5.55V19.2c0 1.725-1.425 3.225-3.225 3.225H3.225A3.201 3.201 0 0 1 0 19.2V7.95c0-1.725 1.425-3.225 3.225-3.225H6L6.6 3c.3-.825 1.275-1.5 2.175-1.5h6.45c.9 0 1.875.675 2.175 1.5l.6 1.8h2.775C22.575 4.8 24 6.225 24 8.025zm-6.45 5.625a5.617 5.617 0 0 0-5.625-5.625c-3.075 0-5.625 2.55-5.625 5.625a5.617 5.617 0 0 0 5.625 5.625c3.15-.075 5.625-2.55 5.625-5.625z"/></svg>

<svg role="img" viewBox="0 0 24 24" xmlns="http://www.w3.org/2000/svg"><title>Unsplash icon</title><path d="M15.6,13.575 C15.6,15.6 13.95,17.175 12,17.175 C10.05,17.175 8.4,15.6 8.4,13.575 C8.4,11.55 10.05,9.975 12,9.975 C14.025,10.05 15.6,11.625 15.6,13.575 Z M24,8.025 L24,19.2 C24,20.925 22.575,22.425 20.775,22.425 L3.225,22.425 C1.425,22.425 0,21 0,19.2 L0,7.95 C0,6.225 1.425,4.725 3.225,4.725 L6,4.725 L6.6,3 C6.9,2.175 7.875,1.5 8.775,1.5 L15.225,1.5 C16.125,1.5 17.1,2.175 17.4,3 L18,4.8 L20.775,4.8 C22.575,4.8 24,6.225 24,8.025 Z M17.55,13.65 C17.55,10.575 15.075,8.025 11.925,8.025 C8.85,8.025 6.3,10.575 6.3,13.65 C6.3,16.725 8.775,19.275 11.925,19.275 C15.075,19.2 17.55,16.725 17.55,13.65 Z"/></svg>
